X:1
T:Title
%%score { ( 1 4 5 ) | ( 2 3 ) }
L:1/8
M:6/8
K:Db
V:1 treble nm="Grand Piano"
V:4 treble 
V:5 treble 
V:2 bass 
V:3 bass 
V:1
 z3 z2[Q:1/4=87] [FA] | [FA][GB][FA] [Fd][Ac][GB] | [DFA]3 [DF]2 [A,FA] | %3
 [DFA][DGB][DFA] [EG][DF][CE] |[M:5/8] [DF]-[DF]- [DF]3 |[M:1/8] [FA] | %6
[M:3/4] [FA][GB] [FA][Fd] [Ac][GB] | A3 d2 B | AF D[K:bass][G,CE] [A,DF][G,CE] | [F,D]6 | %10
 [FA]4 z2 | [Fd]6 | d4 z2 | [FA]6 | [GB]4 z2 | [FA]4 z2[K:bass] | [DF]4 z2 | [CE]6[K:treble] | %18
 [FA]->[DF-A-] [DF-A-][DFA] =GA | [Fd]6 | d4 z2 | [FA]6 | [GB]4 z2 | [FA]4 z2[K:bass] | %24
 [DF]4 z2[Q:1/4=84][Q:1/4=82][Q:1/4=79][Q:1/4=76][Q:1/4=73][Q:1/4=71][Q:1/4=68] |[M:5/8] D-D- D3 |] %26
V:2
 z3 z2 [D,D] | [D,D][D,D][D,D] [D,A,][D,D][D,D] | z3 A,2 D, | A,,A,,A,, [A,,A,][A,,A,][A,,A,] | %4
[M:5/8] [D,A,]-[D,A,]- [D,A,]3 |[M:1/8] [D,D] |[M:3/4] [D,D][D,D] [D,D][D,A,] [D,D][D,D] | %7
 [D,D]4- [D,D][K:treble][G,DG] | [A,DF][K:bass][A,D] [A,,F,]A,, A,,A,, | D,6 | %10
 D,>D, D,D,[K:treble] _F=F | [D,A,]>D, D, .D,3 | G->[G,G-] [G,G-][G,G][K:treble] AB | %13
 D,>D, D, D,2 D, | G,>G, G,G,[K:treble] AB | D,>D, .D,2 DD, | B,,>B,, .B,,2 CB,, | %17
 A,,>A,, A,, A,,2 A,, | D,>D, D,D,[K:treble] _F=F | [D,A,]>D, D, .D,3 | %20
 G->[G,G-] [G,G-][G,G][K:treble] AB | D,>D, D, D,2 D, | G,>G, G,G,[K:treble] AB | D,>D, .D,2 DD, | %24
 A,,>A,, .A,,2 DA,, |[M:5/8] z F,G, F,2 |] %26
V:3
 x6 | x6 | D,6 | x6 |[M:5/8] x5 |[M:1/8] x |[M:3/4] x6 | x5[K:treble] x | x[K:bass] x5 | x6 | %10
 x4[K:treble] x2 | x6 | [G,B,]2 z2[K:treble] z2 | x6 | x4[K:treble] x2 | z2 z .D,3 | z2 z .B,,3 | %17
 x6 | x4[K:treble] x2 | x6 | [G,B,]2 z2[K:treble] z2 | x6 | x4[K:treble] x2 | z2 z .D,3 | %24
 z2 z .A,,3 |[M:5/8] D,-D,- D,3 |] %26
V:4
 x6 | x6 | x6 | x6 |[M:5/8] x5 |[M:1/8] x |[M:3/4] x6 | F6 | x3[K:bass] x3 | x6 | D>D DD =GA | %11
 z z/ A,/ A, .A,3 | z z/ B,/ B,B, cd | D>D D D2 [DFA] | D>D DD cd | D>D DD F[K:bass][F,D] | %16
 =G,>G, .G,2 E[G,D] | A,>A, A, A,2[K:treble] [CGA] | D2 z2 z2 | z z/ A,/ A, .A,3 | %20
 z z/ B,/ B,B, cd | D>D D D2 [DFA] | D>D DD cd | D>D DD F[K:bass][F,D] | A,>A, A, A,2 [G,CE] | %25
[M:5/8] [F,A,]A,B, A,2 |] %26
V:5
 x6 | x6 | x6 | x6 |[M:5/8] x5 |[M:1/8] x |[M:3/4] x6 | x6 | x3[K:bass] x3 | x6 | x6 | x6 | x6 | %13
 x6 | x6 | x5[K:bass] x | z2 z .=G,3 | x5[K:treble] x | x6 | x6 | x6 | x6 | x6 | x5[K:bass] x | %24
 x6 |[M:5/8] x5 |] %26

